src/layout/css/svg-symbols.svg

<svg xmlns="http://www.w3.org/2000/svg" xmlns:xlink="http://www.w3.org/1999/xlink">
<defs>
<path d="M8,1 C8.4120206,1 8.67869581,1.16820615 9.01804372,1.50755406 L14.7437184,7.23322877 C15.0854272,7.57493753 15.0854272,8.12895688 14.7437184,8.47066564 C14.4020097,8.8123744 13.8479903,8.8123744 13.5062816,8.47066564 L8,2.96438407 L2.49371843,8.47066564 C2.15200968,8.8123744 1.59799032,8.8123744 1.25628157,8.47066564 C0.914572811,8.12895688 0.914572811,7.57493753 1.25628157,7.23322877 L7.00240491,1.48710543 C7.33493661,1.15457373 7.5879794,1 8,1 Z M8,7 C8.4120206,7 8.67869581,7.16820615 9.01804372,7.50755406 L14.7437184,13.2332288 C15.0854272,13.5749375 15.0854272,14.1289569 14.7437184,14.4706656 C14.4020097,14.8123744 13.8479903,14.8123744 13.5062816,14.4706656 L8,8.96438407 L2.49371843,14.4706656 C2.15200968,14.8123744 1.59799032,14.8123744 1.25628157,14.4706656 C0.914572811,14.1289569 0.914572811,13.5749375 1.25628157,13.2332288 L7.00240491,7.48710543 C7.33493661,7.15457373 7.5879794,7 8,7 Z" id="path-1"/> 
 <path d="M0,3.32630157 C0,2.77790036 0.444630861,2.33333333 1.00087166,2.33333333 L14.9991283,2.33333333 C15.5518945,2.33333333 16,2.7736791 16,3.32630157 L16,4.00703176 C16,4.55543298 15.5553691,5 14.9991283,5 L1.00087166,5 C0.448105505,5 0,4.55965424 0,4.00703176 L0,3.32630157 Z M0,8.65963491 C0,8.11123369 0.444630861,7.66666667 1.00087166,7.66666667 L14.9991283,7.66666667 C15.5518945,7.66666667 16,8.10701243 16,8.65963491 L16,9.34036509 C16,9.88876631 15.5553691,10.3333333 14.9991283,10.3333333 L1.00087166,10.3333333 C0.448105505,10.3333333 0,9.89298757 0,9.34036509 L0,8.65963491 Z M0,13.9929682 C0,13.444567 0.444630861,13 1.00087166,13 L14.9991283,13 C15.5518945,13 16,13.4403458 16,13.9929682 L16,14.6736984 C16,15.2220996 15.5553691,15.6666667 14.9991283,15.6666667 L1.00087166,15.6666667 C0.448105505,15.6666667 0,15.2263209 0,14.6736984 L0,13.9929682 Z" id="path-1"/> 
 <path d="M7.5,11.7269472 C7.11373069,11.7269472 6.87650307,11.5723735 6.5647546,11.2398418 L1.17776397,5.49371843 C0.85741201,5.15200968 0.85741201,4.59799032 1.17776397,4.25628157 C1.49811593,3.91457281 2.01750907,3.91457281 2.33786103,4.25628157 L7.5,9.76256313 L12.662139,4.25628157 C12.9824909,3.91457281 13.5018841,3.91457281 13.822236,4.25628157 C14.142588,4.59799032 14.142588,5.15200968 13.822236,5.49371843 C13.822236,5.49371843 10.2436893,9.31083491 8.45441599,11.2193931 C8.13627732,11.5587411 7.88626931,11.7269472 7.5,11.7269472 Z" id="arrow_control-path-1"/>
</defs>
<symbol id="arrows" viewBox="0 0 16 16"> <!-- Generator: Sketch 51 (57462) - http://www.bohemiancoding.com/sketch --> <title>Icons / Arrow Double / M</title> <desc>Created with Sketch.</desc>  <g id="Final_arrows" stroke="none" stroke-width="1" fill="none" fill-rule="evenodd"> <g id="v1-2-1-home-dashboard" transform="translate(-540.000000, -538.000000)"> <rect fill="#F8F8F8" x="0" y="0" width="1366" height="768"/> <g id="status" transform="translate(39.000000, 195.000000)" opacity="0.3"> <g id="Group" transform="translate(1.000000, 40.000000)"> <g id="Widget-Copy-3" transform="translate(410.000000, 290.000000)"> <g id="Group-5" transform="translate(90.000000, 13.000000)"> <g id="Icons-/-Arrow-Double-/-M"> <g id="Direct-/-Icons-/-Arrow-Double-/-M"> <rect id="box" x="0" y="0" width="16" height="16"/> <mask id="mask-2" fill="white"> <use xlink:href="#path-1"/> </mask> <use id="icon_arrow-double_m" fill="#000000" fill-rule="nonzero" xlink:href="#path-1"/> <g id="Color-/-Black" mask="url(#mask-2)" fill="#333333"> <g transform="translate(-82.000000, -57.000000)" id="#333333"> <polygon points="0 0 180 0 180 130 0 130"/> </g> </g> </g> </g> </g> </g> </g> </g> </g> </g> </symbol>
<symbol id="burger" viewBox="0 0 16 14"> <!-- Generator: Sketch 51 (57462) - http://www.bohemiancoding.com/sketch --> <title>icon_list_m</title> <desc>Created with Sketch.</desc>  <g id="Final" stroke="none" stroke-width="1" fill="none" fill-rule="evenodd"> <g id="v1-1-1-mobile-home" transform="translate(-339.000000, -70.000000)"> <g id="Direct-/-Icons-/-List-/-M" transform="translate(339.000000, 68.000000)"> <mask id="mask-2" fill="white"> <use xlink:href="#path-1"/> </mask> <use id="icon_list_m" fill="#333333" xlink:href="#path-1"/> </g> </g> </g> </symbol>
<symbol id="cloud-drizzle" viewBox="0 0 26 26"> <!-- Generator: Sketch 51 (57462) - http://www.bohemiancoding.com/sketch --> <title>cloud-drizzle</title> <desc>Created with Sketch.</desc>  <g id="Final" stroke="none" stroke-width="1" fill="none" fill-rule="evenodd"> <g id="v1-2-1-home-dashboard" transform="translate(-212.000000, -365.000000)"> <g id="status" transform="translate(39.000000, 195.000000)"> <g id="Group" transform="translate(1.000000, 40.000000)"> <g id="Group-2" transform="translate(-15.000000, -596.000000)"> <g id="Group-3-Copy" transform="translate(120.000000, 699.000000)"> <g id="Group-4" transform="translate(67.000000, 27.000000)"> <rect id="Rectangle-4" fill-rule="nonzero" x="0" y="0" width="26" height="26"/> <g id="cloud-drizzle" transform="translate(1.000000, 2.000000)" stroke="#333333" stroke-linecap="round" stroke-linejoin="round" stroke-width="3"> <path d="M14,18 L14,20" id="Shape"/> <path d="M14,11 L14,13" id="Shape"/> <path d="M9,20 L9,22" id="Shape"/> <path d="M9,13 L9,15" id="Shape"/> <path d="M20,15.58 C22.1666971,14.6310615 23.3719893,12.2936524 22.8885932,9.97818513 C22.4051971,7.66271783 20.3653864,6.00278331 18,6 L16.74,6 C15.8695943,2.62945307 12.9194928,0.208656038 9.44387933,0.0129425627 C5.96826587,-0.182770913 2.76504323,1.89152946 1.52174557,5.14305273 C0.2784479,8.394576 1.28050125,12.0768642 4,14.25" id="Shape"/> </g> </g> </g> </g> </g> </g> </g> </g> </symbol>
<symbol id="control_arrow" viewBox="0 0 9 14"> <!-- Generator: Sketch 51 (57462) - http://www.bohemiancoding.com/sketch --> <title>Icons / Arrow Right / M Copy@2x</title> <desc>Created with Sketch.</desc>  <g id="Final" stroke="none" stroke-width="1" fill="none" fill-rule="evenodd"> <g id="v1-3-1-home-dashboard-footer" transform="translate(-1283.000000, -608.000000)"> <g id="favorites" transform="translate(40.000000, 595.000000)"> <g id="Icons-/-Arrow-Right-/-M-Copy" transform="translate(1247.500000, 20.000000) scale(-1, 1) translate(-1247.500000, -20.000000) translate(1240.000000, 12.000000)"> <g id="Direct-/-Icons-/-Arrow-Right-/-M"> <rect id="box" x="0" y="0" width="15" height="16"/> <mask id="mask-2" fill="white"> <use xlink:href="#arrow_control-path-1"/> </mask> <use id="icon_arrow-right_m" fill="#000000" fill-rule="nonzero" transform="translate(7.500000, 7.863474) scale(-1, 1) rotate(-270.000000) translate(-7.500000, -7.863474) " xlink:href="#arrow_control-path-1"/> <g id="Color-/-Black" mask="url(#mask-2)" fill="#191919"> <g transform="translate(-76.875000, -57.000000)" id="#191919"> <polygon points="0 0 169 0 169 130 0 130"/> </g> </g> </g> </g> </g> </g> </g> </symbol>
<symbol id="scheduled" viewBox="0 0 24 24"> <!-- Generator: Sketch 51 (57462) - http://www.bohemiancoding.com/sketch --> <title>icon_scheduled</title> <desc>Created with Sketch.</desc>  <g id="Final" stroke="none" stroke-width="1" fill="none" fill-rule="evenodd"> <g id="v1-2-1-home-dashboard" transform="translate(-925.000000, -250.000000)"> <g id="scenarios" transform="translate(696.000000, 196.000000)"> <g id="Widget-Copy-4" transform="translate(215.000000, 40.000000)"> <g id="icon" transform="translate(14.000000, 14.000000)"> <rect id="Rectangle" fill-rule="nonzero" x="0" y="0" width="24" height="24"/> <g id="clock" transform="translate(2.000000, 2.000000)" stroke="#000000" stroke-linecap="round" stroke-linejoin="round" stroke-width="2"> <circle id="Oval" cx="10" cy="10" r="10"/> <polyline id="Shape" opacity="0.3" points="10 4 10 10 13 13"/> </g> </g> </g> </g> </g> </g> </symbol>
<symbol id="sun" viewBox="0 0 24 24"> <!-- Generator: Sketch 51 (57462) - http://www.bohemiancoding.com/sketch --> <title>icon_sun</title> <desc>Created with Sketch.</desc>  <g id="Final" stroke="none" stroke-width="1" fill="none" fill-rule="evenodd"> <g id="v1-2-1-home-dashboard" transform="translate(-464.000000, -404.000000)"> <g id="status" transform="translate(39.000000, 195.000000)"> <g id="Group" transform="translate(1.000000, 40.000000)"> <g id="Widget-Copy" transform="translate(410.000000, 155.000000)"> <g id="icon" transform="translate(14.000000, 14.000000)"> <rect id="Rectangle" fill-rule="nonzero" x="0" y="0" width="24" height="24"/> <g id="sun" transform="translate(1.000000, 1.000000)" stroke="#333333" stroke-linecap="round" stroke-linejoin="round" stroke-width="2"> <circle id="Oval" stroke-opacity="0.4" cx="11" cy="11" r="5"/> <path d="M11,0 L11,2" id="Shape" stroke-opacity="0.1"/> <path d="M11,20 L11,22" id="Shape" stroke-opacity="0.1"/> <path d="M3.22,3.22 L4.64,4.64" id="Shape" stroke-opacity="0.1"/> <path d="M17.36,17.36 L18.78,18.78" id="Shape" stroke-opacity="0.1"/> <path d="M0,11 L2,11" id="Shape" stroke-opacity="0.1"/> <path d="M20,11 L22,11" id="Shape" stroke-opacity="0.1"/> <path d="M3.22,18.78 L4.64,17.36" id="Shape" stroke-opacity="0.1"/> <path d="M17.36,4.64 L18.78,3.22" id="Shape" stroke-opacity="0.1"/> </g> </g> </g> </g> </g> </g> </g> </symbol>
<symbol id="sun_active" viewBox="0 0 24 24"> <!-- Generator: Sketch 51 (57462) - http://www.bohemiancoding.com/sketch --> <title>icon_sun_2</title> <desc>Created with Sketch.</desc>  <g id="Final" stroke="none" stroke-width="1" fill="none" fill-rule="evenodd"> <g id="v1-2-1-home-dashboard" transform="translate(-1140.000000, -250.000000)"> <g id="scenarios" transform="translate(696.000000, 196.000000)"> <g id="Widget-Copy-5" transform="translate(430.000000, 40.000000)"> <g id="icon" transform="translate(14.000000, 14.000000)"> <rect id="Rectangle" fill-rule="nonzero" x="0" y="0" width="24" height="24"/> <g id="sun" transform="translate(1.000000, 1.000000)" stroke-linecap="round" stroke-linejoin="round" stroke-width="2"> <circle id="Oval" stroke="#F5A623" cx="11" cy="11" r="5"/> <path d="M11,0 L11,2" id="Shape" stroke="#FFD93E"/> <path d="M11,20 L11,22" id="Shape" stroke="#FFD93E"/> <path d="M3.22,3.22 L4.64,4.64" id="Shape" stroke="#FFD93E"/> <path d="M17.36,17.36 L18.78,18.78" id="Shape" stroke="#FFD93E"/> <path d="M0,11 L2,11" id="Shape" stroke="#FFD93E"/> <path d="M20,11 L22,11" id="Shape" stroke="#FFD93E"/> <path d="M3.22,18.78 L4.64,17.36" id="Shape" stroke="#FFD93E"/> <path d="M17.36,4.64 L18.78,3.22" id="Shape" stroke="#FFD93E"/> </g> </g> </g> </g> </g> </g> </symbol>
<symbol id="temperature" viewBox="0 0 24 24"> <!-- Generator: Sketch 51 (57462) - http://www.bohemiancoding.com/sketch --> <title>icon_temperature</title> <desc>Created with Sketch.</desc>  <g id="Final" stroke="none" stroke-width="1" fill="none" fill-rule="evenodd"> <g id="v1-2-1-home-dashboard" transform="translate(-464.000000, -269.000000)"> <g id="status" transform="translate(39.000000, 195.000000)"> <g id="Group" transform="translate(1.000000, 40.000000)"> <g id="Widget" transform="translate(410.000000, 20.000000)"> <g id="icon_temperature" transform="translate(14.000000, 14.000000)"> <rect id="Rectangle" fill-rule="nonzero" x="0" y="0" width="24" height="24"/> <path d="M14.0003489,14.76 L14.0003489,3.5 C14.0003489,2.11928813 12.8810608,1 11.5003489,1 C10.119637,1 9.00034891,2.11928813 9.00034891,3.5 L9.00034891,14.76 C7.35223452,15.8611927 6.61873572,17.911099 7.19410587,19.8079004 C7.76947602,21.7047019 9.51820196,23.0016574 11.5003489,23.0016574 C13.4824959,23.0016574 15.2312218,21.7047019 15.806592,19.8079004 C16.3819621,17.911099 15.6484633,15.8611927 14.0003489,14.76 Z" id="Shape" stroke-opacity="0.4" stroke="#333333" stroke-width="2" stroke-linecap="round" stroke-linejoin="round"/> <circle id="Oval-2" fill-opacity="0.1" fill="#333333" fill-rule="nonzero" cx="11.5" cy="18.5" r="3.5"/> </g> </g> </g> </g> </g> </g> </symbol>
<symbol id="temperature_active" viewBox="0 0 24 24"> <!-- Generator: Sketch 51 (57462) - http://www.bohemiancoding.com/sketch --> <title>icon_temperature_2</title> <desc>Created with Sketch.</desc>  <g id="Final" stroke="none" stroke-width="1" fill="none" fill-rule="evenodd"> <g id="v1-2-1-home-dashboard" transform="translate(-925.000000, -365.000000)"> <g id="scenarios" transform="translate(696.000000, 196.000000)"> <g id="Widget-Copy-7" transform="translate(215.000000, 155.000000)"> <g id="icon_temperature" transform="translate(14.000000, 14.000000)"> <rect id="Rectangle" fill-rule="nonzero" x="0" y="0" width="24" height="24"/> <g id="thermometer" transform="translate(7.000000, 1.000000)"> <path d="M7,13.76 L7,2.5 C7,1.11928813 5.88071187,0 4.5,0 C3.11928813,-2.22044605e-16 2,1.11928813 2,2.5 L2,13.76 C0.351885607,14.8611927 -0.381613186,16.911099 0.19375696,18.8079004 C0.769127106,20.7047019 2.51785305,22.0016574 4.5,22.0016574 C6.48214695,22.0016574 8.23087289,20.7047019 8.80624304,18.8079004 C9.38161319,16.911099 8.64811439,14.8611927 7,13.76 Z" id="Shape" stroke="#F5A623" stroke-width="2" stroke-linecap="round" stroke-linejoin="round"/> <circle id="Oval-2" fill="#FFD93E" fill-rule="nonzero" cx="4.5" cy="17.5" r="3.5"/> </g> </g> </g> </g> </g> </g> </symbol>
</svg>

<svg xmlns="http://www.w3.org/2000/svg" xmlns:xlink="http://www.w3.org/1999/xlink">
<defs>
<path d="M8 1c.412 0 .679.168 1.018.508l5.726 5.725a.875.875 0 1 1-1.238 1.238L8 2.964 2.494 8.471a.875.875 0 1 1-1.238-1.238l5.746-5.746C7.335 1.155 7.588 1 8 1zm0 6c.412 0 .679.168 1.018.508l5.726 5.725a.875.875 0 1 1-1.238 1.238L8 8.964l-5.506 5.507a.875.875 0 1 1-1.238-1.238l5.746-5.746C7.335 7.155 7.588 7 8 7z" id="a"/>
<path d="M0 3.326a.995.995 0 0 1 1-.993h14c.552 0 1 .44 1 .993v.681A.995.995 0 0 1 15 5H1c-.552 0-1-.44-1-.993v-.68zM0 8.66a.995.995 0 0 1 1-.993h14c.552 0 1 .44 1 .993v.68a.995.995 0 0 1-1 .993H1c-.552 0-1-.44-1-.993v-.68zm0 5.333A.995.995 0 0 1 1 13h14c.552 0 1 .44 1 .993v.68a.995.995 0 0 1-1 .994H1c-.552 0-1-.44-1-.993v-.681z" id="a"/>
</defs>
<symbol id="arrows" viewBox="0 0 16 16"><title>Icons / Arrow Double / M</title><g fill="none" fill-rule="evenodd"><path fill="#F8F8F8" d="M-540-538H826v768H-540z"/><g opacity=".3"><path d="M0 0h16v16H0z"/><mask id="b" fill="#fff"><use xlink:href="#a"/></mask><use fill="#000" fill-rule="nonzero" xlink:href="#a"/><g mask="url(#b)" fill="#333"><path d="M-82-57H98V73H-82z"/></g></g></g></symbol>
<symbol id="burger" viewBox="0 0 16 14"><title>icon_list_m</title><use fill="#333" xlink:href="#a" transform="translate(0 -2)" fill-rule="evenodd"/></symbol>
<symbol id="cloud-drizzle" viewBox="0 0 26 26"><title>cloud-drizzle</title><g fill="none" fill-rule="evenodd"><path d="M0 0h26v26H0z"/><g stroke="#333" stroke-linecap="round" stroke-linejoin="round" stroke-width="3"><path d="M15 20v2M15 13v2M10 22v2M10 15v2M21 17.58A5 5 0 0 0 19 8h-1.26A8 8 0 1 0 5 16.25"/></g></g></symbol>
<symbol id="scheduled" viewBox="0 0 24 24"><title>icon_scheduled</title><g fill="none" fill-rule="evenodd"><path d="M0 0h24v24H0z"/><g transform="translate(2 2)" stroke="#000" stroke-linecap="round" stroke-linejoin="round" stroke-width="2"><circle cx="10" cy="10" r="10"/><path opacity=".3" d="M10 4v6l3 3"/></g></g></symbol>
<symbol id="sun" viewBox="0 0 24 24"><title>icon_sun</title><g fill="none" fill-rule="evenodd"><path d="M0 0h24v24H0z"/><g transform="translate(1 1)" stroke="#333" stroke-linecap="round" stroke-linejoin="round" stroke-width="2"><circle stroke-opacity=".4" cx="11" cy="11" r="5"/><path d="M11 0v2M11 20v2M3.22 3.22l1.42 1.42M17.36 17.36l1.42 1.42M0 11h2M20 11h2M3.22 18.78l1.42-1.42M17.36 4.64l1.42-1.42" stroke-opacity=".1"/></g></g></symbol>
<symbol id="sun_active" viewBox="0 0 24 24"><title>icon_sun_2</title><g fill="none" fill-rule="evenodd"><path d="M0 0h24v24H0z"/><g transform="translate(1 1)" stroke-linecap="round" stroke-linejoin="round" stroke-width="2"><circle stroke="#F5A623" cx="11" cy="11" r="5"/><path d="M11 0v2M11 20v2M3.22 3.22l1.42 1.42M17.36 17.36l1.42 1.42M0 11h2M20 11h2M3.22 18.78l1.42-1.42M17.36 4.64l1.42-1.42" stroke="#FFD93E"/></g></g></symbol>
<symbol id="temperature" viewBox="0 0 24 24"><title>icon_temperature</title><g fill="none" fill-rule="evenodd"><path d="M0 0h24v24H0z"/><path d="M14 14.76V3.5a2.5 2.5 0 1 0-5 0v11.26a4.5 4.5 0 1 0 5 0z" stroke-opacity=".4" stroke="#333" stroke-width="2" stroke-linecap="round" stroke-linejoin="round"/><circle fill-opacity=".1" fill="#333" fill-rule="nonzero" cx="11.5" cy="18.5" r="3.5"/></g></symbol>
<symbol id="temperature_active" viewBox="0 0 24 24"><title>icon_temperature_2</title><g fill="none" fill-rule="evenodd"><path d="M0 0h24v24H0z"/><g transform="translate(7 1)"><path d="M7 13.76V2.5a2.5 2.5 0 0 0-5 0v11.26a4.5 4.5 0 1 0 5 0z" stroke="#F5A623" stroke-width="2" stroke-linecap="round" stroke-linejoin="round"/><circle fill="#FFD93E" fill-rule="nonzero" cx="4.5" cy="17.5" r="3.5"/></g></g></symbol>
</svg>
